www/assets/icons/search_off.svg

<svg width="24" height="24" viewBox="0 0 24 24" xmlns="http://www.w3.org/2000/svg" fill='currentColor'><path d="M16.845 14.2549H16.055L15.775 13.9849C16.755 12.8449 17.345 11.3649 17.345 9.75488C17.345 6.16488 14.435 3.25488 10.845 3.25488C7.42498 3.25488 4.62498 5.89488 4.37498 9.25488H6.39498C6.64498 7.00488 8.52498 5.25488 10.845 5.25488C13.335 5.25488 15.345 7.26488 15.345 9.75488C15.345 12.2449 13.335 14.2549 10.845 14.2549C10.675 14.2549 10.515 14.2249 10.345 14.2049V16.2249C10.515 16.2449 10.675 16.2549 10.845 16.2549C12.455 16.2549 13.935 15.6649 15.075 14.6849L15.345 14.9649V15.7549L20.345 20.7449L21.835 19.2549L16.845 14.2549Z"/><path d="M7.81498 11.0749L5.34498 13.5449L2.87498 11.0749L2.16498 11.7849L4.63498 14.2549L2.16498 16.7249L2.87498 17.4349L5.34498 14.9649L7.81498 17.4349L8.52498 16.7249L6.05498 14.2549L8.52498 11.7849L7.81498 11.0749Z"/></svg>

<svg xmlns="http://www.w3.org/2000/svg" width="24" height="24" viewBox="0 0 24 24" fill='currentColor'><path d="M16.845 14.255h-.79l-.28-.27a6.47 6.47 0 0 0 1.57-4.23 6.5 6.5 0 0 0-6.5-6.5c-3.42 0-6.22 2.64-6.47 6h2.02c.25-2.25 2.13-4 4.45-4 2.49 0 4.5 2.01 4.5 4.5s-2.01 4.5-4.5 4.5c-.17 0-.33-.03-.5-.05v2.02c.17.02.33.03.5.03 1.61 0 3.09-.59 4.23-1.57l.27.28v.79l5 4.99 1.49-1.49z"/><path d="m7.815 11.075-2.47 2.47-2.47-2.47-.71.71 2.47 2.47-2.47 2.47.71.71 2.47-2.47 2.47 2.47.71-.71-2.47-2.47 2.47-2.47z"/></svg>
